local/share/icons/dracula-icons-main/22/places/emptytrash.svg

<?xml version="1.0" encoding="UTF-8"?>
<svg xmlns="http://www.w3.org/2000/svg" xmlns:xlink="http://www.w3.org/1999/xlink" width="22" height="22" viewBox="0 0 22 22">
<path fill-rule="nonzero" fill="rgb(100%, 100%, 100%)" fill-opacity="1" d="M 9 3.996094 C 8 3.996094 8 4.996094 8 4.996094 L 5 4.996094 C 5 4.996094 4 5 4 6 L 4 7.003906 L 17 7 L 17 6 C 17 5 16 4.996094 16 4.996094 L 13 4.996094 C 13 4.996094 13 3.996094 12 3.996094 Z M 5 8.003906 L 5 17.003906 C 5 17.527344 5.476562 18.003906 6 18.003906 L 15 18.003906 C 15.523438 18.003906 16 17.527344 16 17.003906 L 16 8.003906 L 14 8.003906 L 14 16.003906 L 7 16.003906 L 7 8.003906 Z M 5 8.003906 "/>
</svg>

<svg width="22" height="22" version="1.1" viewBox="0 0 22 22" xmlns="http://www.w3.org/2000/svg">
 <defs>
  <style id="current-color-scheme" type="text/css">.ColorScheme-Text { color:#FFFFFF; } .ColorScheme-Highlight { color:#5294e2; }</style>
 </defs>
 <path class="ColorScheme-Text" d="m9 3.997c-1 0-1 1-1 1h-3s-1 0.00155-1 1.002v1.0039l13-0.00391v-1c0-1-1-1.002-1-1.002h-3s0-1-1-1zm-4 4.0059v9c5e-5 0.52358 0.47642 0.99995 1 1h9c0.52358-5e-5 0.99995-0.47642 1-1v-9h-2v8h-7v-8z" fill="currentColor"/>
</svg>
